X: 20
T: the Monks of the Screw
R: air, jig
%S: s:4 b:16(4+4+4+4)
B: "O'Neill's 1850 #20"
Q: "Moderate"
O: F.O'Neill
Z: Norbert Paap, norbertp@bdu.uva.nl
M: 6/8
L: 1/8
K: D
d \
| d2z/A/ A2z/G/ | F D3zA | AGF GAc | d3- d2z/d/ |
| dAA A<AG | F D3zA | AGF GAc | d3- d2 |]
|| (d/e/) \
| fef g>(fe/d/) | c A3zf | fef g>fe | d3- d(3(e/f/g/) |
| a>gf gfe | f A3zA | A>GF GAc | d3- d2 |]
